icon-themes/sifr_svg/cmd/lc_datafilterstandardfilter.svg

<svg viewBox="0 0 24 24" xmlns="http://www.w3.org/2000/svg"><path d="m5 2v1l2 2 2-2v-1zm5 0v1l2 2 2-2v-1zm5 0v1l2 2 2-2v-1zm-9 4c-.552262 0-1 .44774-1 1v1h14v-1c0-.55226-.447738-1-1-1zm-1 3c.01563 1.01563 0 1 1 2l4 4h4l4-4c1-1 1-1 1-2zm5 7v5c.000351.9 1.077037 1.336591 1.71.71l2-2c.19-.190479.29-.4448.29-.71v-3z" fill="#555753"/></svg>

<svg xmlns="http://www.w3.org/2000/svg" viewBox="0 0 24 24">
  <path
     style="fill:#555753"
     d="M 5,2 V 3 L 7,5 9,3 V 2 Z m 5,0 v 1 l 2,2 2,-2 V 2 Z m 5,0 v 1 l 2,2 2,-2 V 2 Z M 6,6 C 5.447738,6 5,6.44774 5,7 V 8 H 19 V 7 C 19,6.44774 18.552262,6 18,6 Z M 5,9 c 0.01563,1.01563 0,1 1,2 l 4,4 h 4 l 4,-4 c 1,-1 1,-1 1,-2 z m 5,7 v 5 c 3.51e-4,0.9 1.077037,1.336591 1.71,0.71 l 2,-2 C 13.9,19.519521 14,19.2652 14,19 v -3 z"
     />
</svg>
